X:1
T:Glenavon Forest
T:Glenavon Forest
T:Alexander Walker
C:Alexander Walker
L:1/8
M:4/4
K:Gmin
V:1 treble 
V:1
 d | B>F F/F/F D>FB,>F | B>F F/F/F B>cd>c | B>F F/F/F D>FB>F | B>cd>c B<G G :| g | d>gb>g c>fa>f | %7
 d>gb>g d'>gb>g | d>gb>g d>fa>A | B>dc>A B<G Gg | d>gb>g c>fa>f | d>gb>g d'>gb>g | f>gd>f c>dB>c | %13
 d>fc>A B<G G || %14

